static/icons/auditable.svg

<svg width="96" height="80" viewBox="0 0 96 80" fill="none" xmlns="http://www.w3.org/2000/svg">
<g clip-path="url(#clip0)">
<path d="M6.56339 0.59134V0.591263L6.55462 0.591417C3.59251 0.643384 1.15276 2.92969 0.893302 5.88751L0.891389 5.90931V5.9312C0.891389 5.93227 0.891068 5.93793 0.883625 5.94538C0.882697 5.94631 0.881797 5.94712 0.88093 5.94784C0.860319 5.94272 0.845875 5.93709 0.836394 5.93254C0.821393 5.92536 0.816739 5.92002 0.816102 5.9193L0.816075 5.91927C0.815369 5.91848 0.812421 5.91517 0.808961 5.905C0.805699 5.89542 0.80149 5.87804 0.800346 5.85084C1.02921 2.8479 3.55938 0.5 6.56339 0.5H14.7247C14.7267 0.5 14.7335 0.500515 14.7437 0.504705C14.7539 0.508897 14.7642 0.515451 14.7729 0.523649C14.7813 0.531655 14.7865 0.539562 14.7895 0.546096C14.7921 0.551912 14.7941 0.558996 14.7941 0.569395C14.7941 0.570522 14.7941 0.571515 14.7941 0.572381C14.79 0.575321 14.7825 0.579773 14.771 0.583752C14.7571 0.588533 14.741 0.59134 14.7247 0.59134H6.56339Z" fill="#244583" stroke="#244583"/>
<path d="M21.1779 1.09134H18.1885C17.9038 1.09134 17.6191 0.854093 17.6191 0.521945C17.6191 0.189798 17.8564 0 18.1885 0H21.1779C21.4626 0 21.7473 0.237248 21.7473 0.569395C21.7473 0.901542 21.51 1.09134 21.1779 1.09134Z" fill="#244583"/>
<path d="M65.1636 61.3997C64.8789 61.3997 64.5942 61.1625 64.5942 60.8304V57.8885C64.5942 57.6038 64.8315 57.3191 65.1636 57.3191C65.4958 57.3191 65.733 57.5563 65.733 57.8885V60.8304C65.733 61.1151 65.4483 61.3997 65.1636 61.3997Z" fill="#244583"/>
<path d="M65.1636 76.2515C64.8789 76.2515 64.5942 76.0142 64.5942 75.6821V63.5825C64.5942 63.2978 64.8315 63.0131 65.1636 63.0131C65.4958 63.0131 65.733 63.2503 65.733 63.5825V75.7296C65.733 76.0143 65.4483 76.2515 65.1636 76.2515Z" fill="#244583"/>
<path d="M61.8729 18.8849L61.8728 18.8781L61.7305 6.35821C61.7305 6.35698 61.7305 6.35574 61.7305 6.3545C61.7284 4.98085 60.5591 3.81278 59.1851 3.81278H6.56351C5.18825 3.81278 4.06553 4.9355 4.06553 6.31076V76.8683C4.06553 78.2436 5.18825 79.3663 6.56351 79.3663H59.3749C60.7502 79.3663 61.8729 78.2436 61.8729 76.8683L61.8729 18.8849Z" fill="#EBECE9" stroke="#244583" stroke-width="1.2"/>
<path d="M61.2254 6.35821C61.2254 5.31432 59.7544 4.41278 57.9988 4.41278H54.6299C56.3855 4.41278 57.8565 5.26687 57.8565 6.35821L58.0937 18.8849V76.8683C58.0937 77.9122 56.7177 78.7663 54.962 78.7663H58.3309C60.0391 78.7663 61.4626 77.9122 61.4626 76.8683V18.8849L61.2254 6.35821Z" fill="#C1C1C1"/>
<path d="M78.1648 43.0843L80.8694 45.9312C81.7235 46.7853 81.7235 48.1614 80.8694 49.0155L73.9892 55.8956C73.1351 56.7497 71.7591 56.7497 70.905 55.8956L68.3901 53.2859C68.3901 53.2859 72.803 50.4864 74.0841 49.2053C75.3178 47.9716 78.1648 43.0843 78.1648 43.0843Z" fill="#C1C1C1"/>
<path d="M72.4708 56.9395C71.759 56.9395 71.0947 56.6548 70.6202 56.1803L67.9156 53.4757C67.7733 53.2859 67.7733 53.0486 67.9156 52.8588C68.1054 52.7165 68.3426 52.7165 68.5324 52.8588L71.2371 55.5635C71.9488 56.2278 72.9927 56.2278 73.7044 55.5635L80.5846 48.6833C81.2489 48.019 81.2489 46.8802 80.5846 46.2159L77.5004 43.1317C77.3106 42.9893 77.2632 42.7046 77.453 42.5148C77.5953 42.325 77.88 42.2776 78.0698 42.4674L78.1173 42.5148L81.2015 45.5991C82.1979 46.5955 82.1979 48.2562 81.2015 49.3001L74.3213 56.1803C73.8468 56.6548 73.1825 56.9395 72.4708 56.9395Z" fill="#22417D"/>
<path d="M58.0936 55.6584C70.5675 55.6584 80.6796 45.5463 80.6796 33.0724C80.6796 20.5985 70.5675 10.4864 58.0936 10.4864C45.6197 10.4864 35.5076 20.5985 35.5076 33.0724C35.5076 45.5463 45.6197 55.6584 58.0936 55.6584Z" fill="#EBECE9"/>
<path d="M58.0936 56.0854C45.3771 56.0854 35.0806 45.7889 35.0806 33.0724C35.0806 20.3559 45.3771 10.0593 58.0936 10.0593C70.8101 10.0593 81.1067 20.3559 81.1067 33.0724C81.1067 45.7889 70.8101 56.0854 58.0936 56.0854ZM58.0936 10.9134C45.8516 10.9134 35.9347 20.8304 35.9347 33.0724C35.9347 45.3144 45.8516 55.2313 58.0936 55.2313C70.3356 55.2313 80.2526 45.3144 80.2526 33.0724C80.2051 20.8304 70.3356 10.9609 58.0936 10.9134Z" fill="#323C6B"/>
<path d="M58.0937 10.4864C52.115 10.4864 46.3736 12.8588 42.1506 17.0819C52.3997 10.0119 66.4923 12.5741 73.5623 22.8232C79.7781 31.7912 78.6394 43.9383 70.9051 51.6726C81.1542 44.6026 83.7639 30.5575 76.6939 20.261C72.4709 14.14 65.4958 10.4864 58.0937 10.4864Z" fill="#C1C1C1"/>
<path d="M74.7009 55.2313L87.4649 67.9953C88.9832 69.5137 91.4506 69.5137 93.0165 67.9953C94.5348 66.4769 94.5348 64.0095 93.0165 62.4437L80.2525 49.6797L74.7009 55.2313Z" fill="#9FEFDE"/>
<path d="M90.2171 69.5611C89.0783 69.5611 87.9395 69.0866 87.1328 68.28L74.3689 55.516C74.1791 55.3262 74.1791 55.089 74.3689 54.8992L79.9205 49.395C80.1103 49.2052 80.3476 49.2052 80.5374 49.395L93.3013 62.159C95.0095 63.8672 95.0095 66.6192 93.3013 68.28C92.4947 69.0866 91.3559 69.5611 90.2171 69.5611ZM75.3179 55.2313L87.7971 67.7106C89.1257 69.0866 91.3559 69.0866 92.7319 67.758C94.1079 66.4294 94.1079 64.1993 92.7793 62.8233L92.7319 62.7758L80.2052 50.2966L75.3179 55.2313Z" fill="#244583"/>
<path d="M88.319 65.5753C88.0818 65.8126 87.7496 65.8126 87.5598 65.5753L83.7639 61.7793C83.5266 61.5896 83.5266 61.21 83.7639 61.0202C84.0011 60.7829 84.3333 60.7829 84.5705 61.0202L88.3665 64.8161C88.5563 65.0059 88.5563 65.3381 88.319 65.5753Z" fill="white"/>
<path d="M83.1946 59.6441C83.4318 59.8814 83.4318 60.2135 83.1946 60.4508C83.0997 60.5457 82.9573 60.5931 82.815 60.5931C82.6726 60.5931 82.5303 60.5457 82.4354 60.4508L81.1542 59.1696C80.9644 58.9324 80.9644 58.6002 81.2017 58.363C81.4389 58.1732 81.7711 58.1732 81.9609 58.363L83.1946 59.6441Z" fill="white"/>
<path d="M34.9806 33.0724C34.9806 45.8441 45.3219 56.1854 58.0936 56.1854C70.8653 56.1854 81.2067 45.8441 81.2067 33.0724C81.2067 20.3007 70.8653 9.95933 58.0936 9.95933C45.3219 9.95933 34.9806 20.3007 34.9806 33.0724ZM36.0347 33.0724C36.0347 20.8857 45.9067 11.0135 58.0934 11.0134C70.2804 11.0608 80.1053 20.8858 80.1526 33.0728C80.1524 45.2593 70.2802 55.1313 58.0936 55.1313C45.9068 55.1313 36.0347 45.2591 36.0347 33.0724Z" fill="#244583" stroke="#244583" stroke-width="0.2"/>
<path d="M84.0486 68.6596C83.9537 68.6596 83.8114 68.6121 83.7639 68.5172L82.293 67.0463C82.1032 66.8565 82.1032 66.6193 82.293 66.4295C82.4828 66.2397 82.72 66.2397 82.9098 66.4295L84.3808 67.9004C84.5706 68.0902 84.5706 68.3274 84.3808 68.5172C84.2859 68.6121 84.191 68.6596 84.0486 68.6596Z" fill="#244583"/>
<path d="M90.2169 72.1234C88.3664 72.1234 86.6107 71.4116 85.3296 70.083C85.1398 69.9407 85.1398 69.656 85.3296 69.4662C85.472 69.2764 85.7567 69.2764 85.9465 69.4662C88.3189 71.8387 92.1624 71.8387 94.5348 69.4662C94.6772 69.2764 94.9619 69.2764 95.1517 69.4662C95.3415 69.656 95.3415 69.8932 95.1517 70.083C93.8231 71.4116 92.0675 72.1708 90.2169 72.1234Z" fill="#244583"/>
<path d="M74.1317 14.1874C74.0368 14.1874 73.9419 14.14 73.847 14.0925C73.2776 13.618 72.7556 13.191 72.2811 12.8589C72.0913 12.7165 72.0439 12.4793 72.1388 12.242C72.2337 12.0048 72.5184 12.0048 72.7556 12.0997C72.7556 12.0997 72.7556 12.0997 72.8031 12.0997C73.325 12.4318 73.847 12.8589 74.4638 13.3808C74.6536 13.5231 74.6536 13.8078 74.5112 13.9976C74.4163 14.0925 74.274 14.1874 74.1317 14.1874Z" fill="#244583"/>
<path d="M82.5775 27.6157C82.3877 27.6157 82.1979 27.4733 82.1505 27.2835C81.1066 23.0605 78.9713 19.1697 75.982 15.9905C75.8397 15.8007 75.8397 15.5635 75.982 15.3737C76.1244 15.1839 76.4091 15.2313 76.5989 15.3737C79.7305 18.6477 81.9132 22.6809 83.0045 27.0463C83.052 27.2835 82.9097 27.5208 82.6724 27.5682C82.625 27.6157 82.5775 27.6157 82.5775 27.6157Z" fill="#244583"/>
<path d="M52.4471 49.7272C52.3522 49.7272 52.3047 49.7272 52.2573 49.6797C51.4981 49.3476 50.7864 48.968 50.0746 48.5409C49.8374 48.3986 49.7425 48.0664 49.9323 47.8292C50.0746 47.5919 50.3593 47.5445 50.5966 47.6394C51.2609 48.019 51.9726 48.3986 52.6843 48.7307C52.969 48.8256 53.0639 49.1578 52.969 49.395C52.8741 49.5848 52.6843 49.7272 52.4471 49.7272Z" fill="white"/>
<path d="M48.6037 47.4496C48.5088 47.4496 48.3664 47.4021 48.2715 47.3547C45.5194 45.2195 43.3842 42.4199 42.0556 39.1934C41.9607 38.9087 42.0556 38.624 42.3403 38.5291C42.625 38.4342 42.9097 38.5291 43.0046 38.8138C44.2383 41.8505 46.2786 44.5077 48.9358 46.548C49.173 46.7378 49.2205 47.0225 49.0307 47.2598C48.9358 47.4021 48.7934 47.4496 48.6037 47.4496Z" fill="white"/>
<path d="M53.0166 63.2503H12.9217C12.5895 63.2503 12.3523 63.523 12.3523 63.8503C12.3523 64.1776 12.5895 64.4503 12.9217 64.4503H53.064C53.3962 64.4503 53.6334 64.1776 53.6334 63.8503C53.6334 63.523 53.3487 63.2503 53.0166 63.2503Z" fill="#244583"/>
<path d="M40.0629 54.4247H12.9217C12.5895 54.4247 12.3523 54.6974 12.3523 55.0247C12.3523 55.352 12.5895 55.6247 12.9217 55.6247H40.0629C40.395 55.6247 40.6322 55.352 40.6322 55.0247C40.6322 54.6429 40.395 54.4247 40.0629 54.4247Z" fill="#244583"/>
<path d="M31.9964 45.5516H12.9217C12.5895 45.5516 12.3523 45.8243 12.3523 46.1516C12.3523 46.4789 12.5895 46.7516 12.9217 46.7516H31.9964C32.3286 46.7516 32.5658 46.4789 32.5658 46.1516C32.5658 45.8243 32.2811 45.5516 31.9964 45.5516Z" fill="#244583"/>
<path d="M30.2408 36.4413H12.9217C12.5895 36.4413 12.3523 36.714 12.3523 37.0413C12.3523 37.3685 12.5895 37.6413 12.9217 37.6413H30.2882C30.6204 37.6413 30.8576 37.3685 30.8576 37.0413C30.8576 36.714 30.5729 36.4413 30.2408 36.4413Z" fill="#244583"/>
<path d="M30.5729 27.6157H12.9217C12.5895 27.6157 12.3523 27.8884 12.3523 28.2157C12.3523 28.5429 12.5895 28.8157 12.9217 28.8157H30.5729C30.9051 28.8157 31.1423 28.5429 31.1423 28.2157C31.1423 27.8884 30.9051 27.6157 30.5729 27.6157Z" fill="#244583"/>
<path d="M33.8944 18.7426H12.9217C12.5895 18.7426 12.3523 19.0153 12.3523 19.3426C12.3523 19.6699 12.5895 19.9426 12.9217 19.9426H33.8944C34.2266 19.9426 34.4638 19.6699 34.4638 19.3426C34.4638 19.0153 34.1791 18.7426 33.8944 18.7426Z" fill="#244583"/>
</g>
<defs>
<clipPath id="clip0">
<rect width="94.9466" height="80" fill="white" transform="translate(0.300049)"/>
</clipPath>
</defs>
</svg>

<svg xmlns="http://www.w3.org/2000/svg" width="96" height="80" fill="none" xmlns:v="https://vecta.io/nano"><g clip-path="url(#A)"><g fill="#244583"><path d="M6.563.591h0-.009C3.593.643 1.153 2.93.893 5.888l-.002.022v.022c-.031.012-.046.006-.055.001-.015-.007-.02-.013-.02-.013h0A.17.17 0 0 1 .8 5.851 5.81 5.81 0 0 1 6.563.5h8.161c.029.009.04.015.048.024s.014.016.017.022.005.013.005.023-.012.01-.023.014-.03.008-.046.008H6.563z" stroke="#244583"/><path d="M21.178 1.091h-2.989c-.285 0-.569-.237-.569-.569S17.856 0 18.189 0h2.989c.285 0 .569.237.569.569s-.237.522-.569.522zM65.164 61.4c-.285 0-.569-.237-.569-.569v-2.942c0-.285.237-.569.569-.569s.569.237.569.569v2.942c0 .285-.285.569-.569.569zm0 14.852c-.285 0-.569-.237-.569-.569v-12.1c0-.285.237-.569.569-.569s.569.237.569.569V75.73c0 .285-.285.522-.569.522z"/></g><path d="M61.873 18.885v-.007l-.142-12.52a2.59 2.59 0 0 0-2.545-2.545H6.564c-1.375 0-2.498 1.123-2.498 2.498v70.558c0 1.375 1.123 2.498 2.498 2.498h52.811c1.375 0 2.498-1.123 2.498-2.498V18.885z" fill="#ebece9" stroke="#244583" stroke-width="1.2"/><g fill="#c1c1c1"><path d="M61.225 6.358c0-1.044-1.471-1.945-3.227-1.945H54.63c1.756 0 3.227.854 3.227 1.945l.237 12.527v57.983c0 1.044-1.376 1.898-3.132 1.898h3.369c1.708 0 3.132-.854 3.132-1.898V18.885l-.237-12.527zm16.94 36.726l2.705 2.847c.854.854.854 2.23 0 3.084l-6.88 6.88c-.854.854-2.23.854-3.084 0l-2.515-2.61s4.413-2.799 5.694-4.081c1.234-1.234 4.081-6.121 4.081-6.121z"/></g><path d="M72.471 56.94a2.62 2.62 0 0 1-1.851-.759l-2.705-2.705a.5.5 0 0 1 0-.617.5.5 0 0 1 .617 0l2.705 2.705c.712.664 1.756.664 2.467 0l6.88-6.88a1.78 1.78 0 0 0 0-2.467L77.5 43.132c-.19-.142-.237-.427-.047-.617.142-.19.427-.237.617-.047l.047.047 3.084 3.084c.996.996.996 2.657 0 3.701l-6.88 6.88a2.62 2.62 0 0 1-1.85.759z" fill="#22417d"/><path d="M58.094 55.658A22.59 22.59 0 0 0 80.68 33.072a22.59 22.59 0 0 0-22.586-22.586 22.59 22.59 0 0 0-22.586 22.586 22.59 22.59 0 0 0 22.586 22.586z" fill="#ebece9"/><path d="M58.094 56.085c-12.717 0-23.013-10.297-23.013-23.013s10.297-23.013 23.013-23.013 23.013 10.297 23.013 23.013S70.81 56.085 58.094 56.085zm0-45.172c-12.242 0-22.159 9.917-22.159 22.159s9.917 22.159 22.159 22.159 22.159-9.917 22.159-22.159a22.22 22.22 0 0 0-22.159-22.159z" fill="#323c6b"/><path d="M58.094 10.486c-5.979 0-11.72 2.372-15.943 6.596 10.249-7.07 24.342-4.508 31.412 5.741 6.216 8.968 5.077 21.115-2.657 28.849 10.249-7.07 12.859-21.115 5.789-31.412a22.63 22.63 0 0 0-18.6-9.775z" fill="#c1c1c1"/><path d="M74.701 55.231l12.764 12.764c1.518 1.518 3.986 1.518 5.552 0 1.518-1.518 1.518-3.986 0-5.552L80.253 49.68l-5.552 5.552z" fill="#9fefde"/><path d="M90.217 69.561c-1.139 0-2.278-.474-3.084-1.281L74.369 55.516c-.19-.19-.19-.427 0-.617l5.552-5.504c.19-.19.427-.19.617 0l12.764 12.764c1.708 1.708 1.708 4.46 0 6.121-.807.807-1.945 1.281-3.084 1.281zm-14.899-14.33l12.479 12.479c1.329 1.376 3.559 1.376 4.935.047s1.376-3.559.047-4.935l-.047-.048-12.527-12.479-4.887 4.935z" fill="#244583"/><g fill="#fff"><path d="M88.319 65.575c-.237.237-.569.237-.759 0l-3.796-3.796c-.237-.19-.237-.569 0-.759.237-.237.569-.237.807 0l3.796 3.796c.19.19.19.522-.047.759zm-5.124-5.931c.237.237.237.569 0 .807a.54.54 0 0 1-.38.142.54.54 0 0 1-.38-.142l-1.281-1.281a.59.59 0 0 1 .047-.807c.237-.19.569-.19.759 0l1.234 1.281z"/></g><g fill="#244583"><path d="M34.981 33.072c0 12.772 10.341 23.113 23.113 23.113s23.113-10.341 23.113-23.113S70.865 9.959 58.094 9.959 34.981 20.301 34.981 33.072zm1.054 0c0-12.187 9.872-22.059 22.059-22.059a22.12 22.12 0 0 1 22.059 22.059c0 12.187-9.872 22.059-22.059 22.059s-22.059-9.872-22.059-22.059z" stroke="#244583" stroke-width=".2"/><path d="M84.049 68.66c-.095 0-.237-.047-.285-.142l-1.471-1.471c-.19-.19-.19-.427 0-.617s.427-.19.617 0l1.471 1.471c.19.19.19.427 0 .617a.43.43 0 0 1-.332.142zm6.168 3.463c-1.85 0-3.606-.712-4.887-2.04-.19-.142-.19-.427 0-.617.142-.19.427-.19.617 0a6.07 6.07 0 0 0 8.588 0c.142-.19.427-.19.617 0s.19.427 0 .617c-1.329 1.329-3.084 2.088-4.935 2.04zM74.132 14.187c-.095 0-.19-.047-.285-.095l-1.566-1.234c-.19-.142-.237-.38-.142-.617s.38-.237.617-.142h.047c.522.332 1.044.759 1.661 1.281.19.142.19.427.047.617-.095.095-.237.19-.38.19zm8.446 13.429c-.19 0-.38-.142-.427-.332-1.044-4.223-3.179-8.114-6.168-11.293a.5.5 0 0 1 0-.617c.142-.19.427-.142.617 0 3.132 3.274 5.314 7.307 6.406 11.673.048.237-.095.475-.332.522-.047.047-.095.047-.095.047z"/></g><g fill="#fff"><path d="M52.447 49.727c-.095 0-.142 0-.19-.048a19.09 19.09 0 0 1-2.183-1.139c-.237-.142-.332-.474-.142-.712.142-.237.427-.285.664-.19l2.088 1.091c.285.095.38.427.285.664-.095.19-.285.332-.522.332zm-3.843-2.277a.87.87 0 0 1-.332-.095 19.9 19.9 0 0 1-6.216-8.161c-.095-.285 0-.569.285-.664s.569 0 .664.285c1.234 3.037 3.274 5.694 5.931 7.734.237.19.285.474.095.712-.095.142-.237.19-.427.19z"/></g><g fill="#244583"><path d="M53.017 63.25H12.922c-.332 0-.569.273-.569.6s.237.6.569.6h40.142c.332 0 .569-.273.569-.6s-.285-.6-.617-.6zm-12.954-8.825H12.922c-.332 0-.569.273-.569.6s.237.6.569.6h27.141c.332 0 .569-.273.569-.6 0-.382-.237-.6-.569-.6zm-8.067-8.873H12.922c-.332 0-.569.273-.569.6s.237.6.569.6h19.075c.332 0 .569-.273.569-.6a.61.61 0 0 0-.569-.6zm-1.755-9.111H12.922c-.332 0-.569.273-.569.6s.237.6.569.6h17.367c.332 0 .569-.273.569-.6s-.285-.6-.617-.6zm.332-8.825H12.922c-.332 0-.569.273-.569.6s.237.6.569.6h17.651c.332 0 .569-.273.569-.6s-.237-.6-.569-.6zm3.321-8.873H12.922c-.332 0-.569.273-.569.6s.237.6.569.6h20.973c.332 0 .569-.273.569-.6a.61.61 0 0 0-.569-.6z"/></g></g><defs><clipPath id="A"><path fill="#fff" transform="translate(.3)" d="M0 0h94.947v80H0z"/></clipPath></defs></svg>
